X:1
T:Title
%%score { ( 1 2 ) | ( 3 4 ) }
L:1/8
Q:1/4=90
M:6/8
K:F
V:1 treble nm="Grand Piano"
V:2 treble 
V:3 bass 
V:4 bass 
V:1
 .[CF]3 .F3 | z A[_Ad] [=Ac]2 [FA] | [Ff]2 [Fd] c2 F | FGA [EG]3 | ABc d2 c | =BAG [Ge]2 [Ec] | %6
w: Hubert~P.~Main *||||||
 [Ff]2 [Fd] [Fc]2 [=B,F] | E-[EG]F F3 | [EG]2 [Gc] =BAG | [Gc]2 d =BAG | [Ge]2 [Gd] [CGc]2 [G,CE] | %11
w: |||||
[M:13/16] z/ z/ z/ z/[K:bass] z C/-C/-C/-C-<C |[M:3/4][K:treble] z2 z .F3 | f2 ff e[Fd] | %14
w: |||
 cA d c2 F[Q:1/4=89][Q:1/4=87][Q:1/4=86][Q:1/4=84] | %15
w: |
 E-[EG] F F3[Q:1/4=83][Q:1/4=82][Q:1/4=80][Q:1/4=79][Q:1/4=77][Q:1/4=76][Q:1/4=75][Q:1/4=73][Q:1/4=72][Q:1/4=70][Q:1/4=69] |] %16
w: |
V:2
 z B,F z CF | .F3 z3 | x6 | x6 | x6 | x6 | x6 | .[CA]3 z3 | x6 | x6 | x6 | %11
[M:13/16] [CE]F[K:bass][F,=B,D]E,F,G,3/2 |[M:3/4][K:treble] F2 .F2 B,F | x6 | x6 | .[CA]2 z2 z2 |] %16
V:3
 [F,A,]G,[A,C] [B,D]A,[G,B,C] | A,C[F,=B,] [F,C]2 [F,C] | [B,,D]2 [D,B,] [F,A,F]2 [A,C] | %3
 C-[G,CE][F,CF] [C,C]3 | .[CF]3[K:treble] z3 | .D3[K:bass] z3 | [D,A,]2 [B,,B,] [F,A,]2 D, | %7
 z B,[F,A,] [F,A,]3 | z3[K:treble] .[G,F]3 | z3[K:treble] .D3 | [C,C]2 [D,=B,] E,2 C, | %11
[M:13/16] G,-<G, z/ z/ z/ z/ z/ z/ z/ z |[M:3/4] [F,A,C]2 [F,A,C][F,A,] G,[K:treble][A,C] | %13
 [B,DF]2 [B,DF][K:bass]D C[D,B,] | [F,F]-[F,CF] [F,B,F] [F,A,F]2 [D,=B,] | z B, [F,A,] [F,A,]3 |] %16
V:4
 x6 | .F,3 z3 | x6 | .A,3 z3 | F,G,[K:treble][A,CF] [B,F]2 [A,CF] | %5
 [G,F]-[G,CF][G,=B,F][K:bass] [C,C]2 [C,_B,] | x6 | .C,3 z3 | [C,C]2 [E,C][K:treble] DC[G,=B,F] | %9
 [E,C]2 [F,A,F][K:treble] [G,F]-[G,CF][G,=B,F] | x6 |[M:13/16] z DG,,C,D,E,3/2 | %12
[M:3/4] x5[K:treble] x | z2 z[K:bass] .[B,,F]3 | .A,2 z2 z2 | C,2 z2 z2 |] %16

